!!!!SEGMENT: pl-kc--40102-iii-1-saf--001-040_zielenski-mikolaj--offertoria-totius-anni-communio-in-die-pentecostes-factus-est-repente.krn
!!!cenid: 16xx:1518
!!!COM: Zieleński, Mikołaj
!!!COM-rismID:
!!!CDT: <1611->1611
!!!CNT: Polish
!!!GTL: Offertoria totius anni
!!!OTL: Communio In die Pentecostes/Factus est repente
!!!OMV: 040
!!!PDT: 1611
!!!AGN:
!!!SMS-siglum: PL-Kc
!!!SMS-shelfmark: 40102 III/1 Saf.
!!!SMS-shelfwork: 001-040 G
!!!SMS-variant:
!!!SMS-altvar:
!!!NIFC-rismSourceID: 990069886
!!!NIFC-islandoraID:
!!!URL-pdf-islandora:
!!!URL-scan: https://cyfrowe.mnk.pl/dlibra/publication/24235/edition/23926/content?ref=desc @EN{Scan on The National Museum in Krakow Website} @PL{Skany w portalu Biblioteka Cyfrowa Muzeum Narodowego w Krakowie}
!!!ONB-nifc: UWAGA: str. 36-37. Uwaga: W xml metrum 2/1 do źródłowego C| i odpowiednio 3/1 do 3/2
!!!AIN: 4 organ
!!!key:
**kern	**kern	**kern	**kern
*group1	*group1	*group1	*group1
*part4	*part3	*part2	*part1
*staff4	*staff3	*staff2	*staff1
*I""Organo	*I""Organo	*I""Organo	*I""Organo
*I''org	*I''org	*I''org	*I''org
*Iorgan	*Iorgan	*Iorgan	*Iorgan
*ICklav	*ICklav	*ICklav	*ICklav
*clefF4	*clefC1	*clefF3	*clefG2
*k[b-]	*k[b-]	*k[b-]	*k[b-]
*F:	*F:	*F:	*F:
*M2/1	*M2/1	*M2/1	*M2/1
*met(c|)	*met(c|)	*met(c|)	*met(c|)
=1	=1	=1	=1
!	!	!LO:TX:t=P:problem=zdwojony znak przykluczowy	!
!	!	!LO:TX:a:t=Faćtus eſt repentel	!LO:TX:a:t=Com munio. In die Pentecoſtes.   A  8.
1GG	1cc	1C	1ff
2C/	2cc\	2C/	2ee\
2AA/	2cc\	2C/	2ff\
=2-	=2-	=2-	=2-
2.BB-/	2b-\	2D/	2dd\
.	1b-	2.D/	1dd
4AA/	.	.	.
1GG	.	.	.
.	.	4E/	.
.	4a\	4F/	4cc\
.	4g/	4G\	4b-/
=3	=3	=3	=3
2AA/	2.cc\	2C/	4a/
.	.	.	4g/
2FF/	.	2F/	4a/
.	4b-\	.	4b-/
2.F\	2a\	2.A\	2cc\
.	1a	.	2cc\
4E\	.	4G\	.
=4-	=4-	=4-	=4-
2.D/	.	2.F/	1.ff
.	2dd\	.	.
4C/	.	4E/	.
2BB-/	2g/	2D/	.
2C/	[y2cc\	2C/	2ee\
=5	=5	=5	=5
!	!LO:N:xstem:cue	!	!
1GG	4cc\]	1D	1dd
!	!LO:TX:a:t=P:problem=# above	!	!
!	!LO:N:acc=#	!	!
.	8bn\	.	.
.	8a\	.	.
.	2b\	.	.
1C	1cc	1C	1ee
=6-	=6-	=6-	=6-
2.FF/	2.cc\	2.C/	2.ff\
4FF/	4cc\	4C/	4ff\
2FF/	2cc\	2C/	2ff\
[>2C/	[2cc\	4C/	[<2ee\
.	.	4D/	.
=7	=7	=7	=7
2C/]	2cc\]	4E/	2ee\]
.	.	4C/	.
2AA/	2cc\	2F/	2ff\
1BB-	1b-	1F	1dd
=8-	=8-	=8-	=8-
2FF/	2a\	2F/	2cc\
2.F\	1a	2.A\	2.cc\
4F\	.	4A\	4cc\
2E\	2cc\	2G\	2cc\
=9	=9	=9	=9
2.D/	1dd	2.F/	1.ff
4C/	.	4E/	.
2BB-/	2g/	2D/	.
2C/	2.cc\	2C/	2ee\
=10-	=10-	=10-	=10-
1GG	.	1D	1dd
!	!LO:N:acc=#	!	!
!	!LO:TX:a:t=P:problem=# above	!	!
.	8bn\	.	.
.	8a\	.	.
.	2b\	.	.
1C	1cc	2.C/	2ee\
.	.	.	2cc\
.	.	4c\	.
=11	=11	=11	=11
00r	00r	2B-\	2dd\
.	.	2G\	2ee\
.	.	1d	1ff
=12-	=12-	=12-	=12-
.	.	2c\	2ee\
.	.	2G\	2dd\
.	.	2A\	2.cc\
.	.	2F/	.
.	.	.	4cc\
=13	=13	=13	=13
*	*	*lig	*
0r	0r	1c	2ee\
.	.	.	2.ff\
.	.	1C	.
.	.	.	8ee\
.	.	.	8dd\
.	.	.	2ee\
*	*	*Xlig	*
=14-	=14-	=14-	=14-
2r	2r	1F	1ff
2F\	4r	.	.
.	4a\	.	.
2E-X\	2b-\	1r	1r
2C/	2cc\	.	.
*custos:BB	*custos:a	*custos:d	*custos:dd
!!LO:LB:g=original
=15	=15	=15	=15
1D	1a	00r	00r
2.GG/	2g/	.	.
.	2.b-\	.	.
4G\	.	.	.
=16-	=16-	=16-	=16-
2D/	.	.	.
.	4b-\	.	.
2F\	2.a\	.	.
2G\	.	.	.
.	8g/	.	.
.	8f/	.	.
2GG/	2g/	.	.
=17	=17	=17	=17
1D	1a	2r	2r
.	.	4r	2dd\
.	.	4d\	.
1r	1r	4c#X\	4ee\
.	.	4d\	4ff\
.	.	2A\	2ee\
=18-	=18-	=18-	=18-
0r	0r	4D/	4dd\
.	.	4d\	4dd\
.	.	4c#X\	4ee\
.	.	4d\	4ff\
.	.	1A	1ee
=19	=19	=19	=19
2r	2r	1D	1dd
2D/	4r	.	.
.	4a\	.	.
4C#X/	4a\	1r	1r
4D/	4f/	.	.
2AA/	2e/	.	.
=20-	=20-	=20-	=20-
4D/	4d/	0r	0r
4D/	4a\	.	.
4C#X/	4a\	.	.
4D/	4f/	.	.
1AA	1e	.	.
=21	=21	=21	=21
2.D/	2.d/	2r	2r
.	.	2D/	2dd\
4D/	4dd\	.	.
4BB-/	4dd\	4D/	4ff\
4C/	2cc\	4G\	4ee\
2GG/	.	2G\	2dd\
!	!LO:N:acc=#	!	!
.	4bn\	.	.
=22-	=22-	=22-	=22-
2C/	2cc\	4G\	2cc\
.	.	2C/	.
2FF/	2a\	.	2cc\
.	.	4AA/	.
2.BB-/	[y1bny	2D/	2.dd\
.	.	4BB-/	.
4AA/	.	4C/	4cc\
=23	=23	=23	=23
!	!LO:N:vis=xstem:cue	!	!
2GG/	2b\]	4D/	4b-/
.	.	4E/	4g/
2FF/	2a\	4F/	2cc\
.	.	8E/	.
.	.	8D/	.
1C	1g	4E/	1cc
.	.	4F/	.
.	.	2G\	.
=24-	=24-	=24-	=24-
1FF	1a	2F/	2cc\
.	.	2F/	2cc\
1r	1r	2D/	2ff\
.	.	4D/	4ff\
.	.	4A\	4ee\
=25	=25	=25	=25
00r	00r	2B-\	2dd\
.	.	2F/	2cc\
.	.	2.G\	2b-/
.	.	.	2.dd\
.	.	4F/	.
=26-	=26-	=26-	=26-
.	.	2E-X/	.
.	.	.	4cc\
.	.	2C/	2.cc\
.	.	1G	.
!	!	!	!LO:N:acc=#
.	.	.	8bn/
.	.	.	8a/
.	.	.	2b/
=27	=27	=27	=27
2r	2r	1C	1cc
2C/	2g/	.	.
2AA/	2cc\	1r	1r
4AA/	4cc\	.	.
4BB-/	4b-\	.	.
=28-	=28-	=28-	=28-
2FF/	2a\	0r	0r
2GG/	2g/	.	.
2.D/	2f/	.	.
.	[y2a\	.	.
4D/	.	.	.
=29	=29	=29	=29
!	!LO:N:xstem:cue	!	!
2C/	4a\]	0r	0r
.	4a\	.	.
2GG/	2.g/	.	.
1D	.	.	.
.	8f#X/	.	.
.	8e/	.	.
.	2f#/	.	.
=30-	=30-	=30-	=30-
*M3/2	*M3/2	*M3/2	*M3/2
1.GG	1.g	1.r	1.r
1.r	1.r	2G\	2dd\
.	.	2G\	2dd\
.	.	2c\	2ee\
=31	=31	=31	=31
0.r	0.r	1B-	1ff
.	.	2G\	2gg\
.	.	1A	1ee
.	.	2D/	2dd\
=32-	=32-	=32-	=32-
2D/	2a\	0.r	0.r
2D/	2a\	.	.
2BB-/	2b-\	.	.
1AA	1cc	.	.
2D/	2a\	.	.
=33	=33	=33	=33
4GG/	1b-	0.r	0.r
4AA/	.	.	.
4BB-/	.	.	.
4C/	.	.	.
2D/	2a\	.	.
2BB-/	2dd\	.	.
2F\	1cc	.	.
2FF/	.	.	.
=34-	=34-	=34-	=34-
*M2/1	*M2/1	*M2/1	*M2/1
*met(c|)	*met(c|)	*met(c|)	*met(c|)
2.BB-/	2b-\	2r	2r
.	2dd\	2BB-/	2dd\
4BB-/	.	.	.
2.FF/	2.cc\	2.C/	2.ff\
4FF/	4cc\	4C/	4ff\
=35	=35	=35	=35
2FF/	2cc\	2C/	2ff\
2C/	2cc\	2C/	2ee\
4GG/	1b-	1G	1dd
4AA/	.	.	.
4BB-/	.	.	.
4GG/	.	.	.
=36-	=36-	=36-	=36-
!       2	!	!	!
2.AA/	2a\	2E/	2cc#X\
.	1a	2.E/	2.ee\
!LO:TX:a:t=P:problem=# above	!	!	!
!LO:N:acc=#	!	!	!
4BBn/	.	.	.
!LO:TX:a:t=P:problem=# above	!	!	!
2C#X/	.	.	.
.	.	4E/	4ee\
2D/	2a\	2F/	2dd\
*custos:AA	*custos:a	*custos:E	*custos:cc
!!LO:PB:g=original
=37	=37	=37	=37
0AA	1a	2E/	2cc#X\
.	.	2D/	2.dd\
.	1a	1E	.
.	.	.	8cc#X\
.	.	.	8b-\
.	.	.	2cc#\
=38	=38	=38	=38
*M3/2	*M3/2	*M3/2	*M3/2
1D	1a	1.D	1.dd
2D/	2a\	.	.
1D	1a	1.r	1.r
2BB-/	2b-\	.	.
=39	=39	=39	=39
1AA	2.cc\	0.r	0.r
.	4b-\	.	.
2D/	2a\	.	.
1GG	2.b-\	.	.
.	4a\	.	.
2GG/	2g/	.	.
=40-	=40-	=40-	=40-
2E\	2g/	1.r	1.r
1D	1f	.	.
1.C	1.e	2r	2r
.	.	2r	2r
.	.	2c\	2ee\
=41	=41	=41	=41
00.r	00.r	1c	1ee#X
.	.	2A\	2ff\
.	.	1G	2.gg\
.	.	.	4ff\
.	.	2c\	2ee#\
=42-	=42-	=42-	=42-
.	.	2.F/	2.ff\
.	.	4G\	4eeny\
.	.	2B-\	2dd\
.	.	2c\	2.cc\
.	.	1G	.
!	!	!	!LO:N:acc=#
.	.	.	8bn/
.	.	.	8a/
.	.	.	2b/
=43	=43	=43	=43
2r	2r	1C	1cc
2r	2r	.	.
2C/	2cc\	2C/	2ee\
1C	1cc	1C	1ee
2AA/	2cc\	2C/	2ff\
=44-	=44-	=44-	=44-
!	!LO:N:vis=1	!	!
1BB-	1.b-	1D	1dd
2GG/	.	2BB-/	2ee\
2.C/	1a	2F/	2.ff\
.	.	1D	.
4C/	.	.	4ee\
2BB-/	2b-\	.	2dd\
=45	=45	=45	=45
2GG/	2a\	2F/	2cc\
1C	1g	1C	1cc
=46-	=46-	=46-	=46-
*M2/1	*M2/1	*M2/1	*M2/1
*met(c|)	*met(c|)	*met(c|)	*met(c|)
1FF	1a	2.C/	2.cc\
.	.	4F/	4cc\
=47-	=47-	=47-	=47-
0r	0r	4E/	4cc\
.	.	4F/	4a/
.	.	2C/	2g/
.	.	4F/	4a/
.	.	4F/	4cc\
.	.	4E/	4cc\
.	.	4F/	4a/
=48	=48	=48	=48
1r	1r	1C	4g/
.	.	.	4f/
.	.	.	2g/
2r	2r	1F	1a
4r	4r	.	.
4FF/	4a\	.	.
=49-	=49-	=49-	=49-
4C/	4g/	0r	0r
4FF/	2f/	.	.
2C/	.	.	.
.	4e/	.	.
4FF/	4f/	.	.
4F\	4a\	.	.
4E\	4g/	.	.
4D/	4f/	.	.
=50	=50	=50	=50
2A\	1e	1r	1r
2AA/	.	.	.
1D	1d	2r	2r
.	.	4r	2dd\
.	.	4d\	.
=51-	=51-	=51-	=51-
0r	0r	4c#X\	4ee\
.	.	4d\	4ff\
.	.	2A\	2ee\
.	.	4D/	4dd\
.	.	4d\	4dd\
.	.	4c#X\	4ee\
.	.	4d\	4ff\
=52	=52	=52	=52
1r	1r	1A	1ee
2r	2r	1D	1dd
4r	4r	.	.
4D/	4a\	.	.
=53-	=53-	=53-	=53-
4C#X/	4a\	0r	0r
4D/	4f/	.	.
2AA/	2e/	.	.
4D/	4d/	.	.
4D/	4a\	.	.
4C#X/	4a\	.	.
4D/	4f/	.	.
=54	=54	=54	=54
1AA	1e	1r	1r
2.D/	2.d/	2r	2r
.	.	2D/	2dd\
4D/	4dd\	.	.
=55-	=55-	=55-	=55-
4BB-/	4dd\	4D/	4ff\
4C/	2cc\	4G\	4ee\
2GG/	.	2G\	2dd\
!	!LO:N:acc=#	!	!
.	4bn\	.	.
2C/	2cc\	4G\	2cc\
.	.	2C/	.
2FF/	2a\	.	2cc\
.	.	4AA/	.
*custos:BB	*custos:b	*custos:D	*custos:dd
!!LO:LB:g=original
=56	=56	=56	=56
2.BB-/	1.b-	2D/	2.dd\
.	.	4BB-/	.
4AA/	.	4C/	4cc\
2GG/	.	4D/	4b-/
.	.	4E/	4g/
2FF/	2a\	4F/	2cc\
.	.	8E/	.
.	.	8D/	.
=57-	=57-	=57-	=57-
1C	1g	4E/	1cc
.	.	4F/	.
.	.	2G\	.
1FFl	1al	1Fl	1ccl
==	==	==	==
*-	*-	*-	*-
!!!system-decoration: *
!!!RDF**kern: > = above
!!!RDF**kern: < = below
!!!RDF**kern: l = terminal long
!!!ENC: Filip Voros
!!!END: 2021-12-15
!!!ENC: Marta Lawrence
!!!END: 2021-12-21
